!!!COM: Hindemith, Paul
!!!OTL: Trio for Viola, Heckelphone and Piano, op. 47
!!!OMV: Part II: Potpourri
!!!example: 642
!!!work: Hin-35
**kern	**kern	**dynam	**kern	**dynam	**kern	**dynam
*part3	*part3	*part3	*part2	*part2	*part1	*part1
*staff4	*staff3	*	*staff2	*	*staff1	*
*I"Piano	*	*	*I"Heckelphone	*	*I"Viola	*
*I'Pno.	*	*	*I'Heckl.	*	*I'Vla.	*
*clefF4	*clefG2	*	*clefG2	*	*clefG2	*
*k[]	*k[]	*	*k[]	*	*k[]	*
*	*	*	*	*	*	*
*M4/4	*M4/4	*	*M4/4	*	*M4/4	*
*MM121	*MM121	*	*MM121	*	*MM121	*
=65	=65	=65	=65	=65	=65	=65
4GG 4G	4b-X	.	8f	.	4dd-X	.
.	.	.	8r	.	.	.
*	*	*	*	*	*clefC3	*
4r	4r	.	(4f#X	mp	(8E-XL	mp
.	.	.	.	.	8DnJ)	.
2r	2r	.	4e	.	(8DL	.
.	.	.	.	.	8C)	.
.	.	.	4d	.	(8C	.
.	.	.	.	.	8EnJ)	.
=66	=66	=66	=66	=66	=66	=66
!	!	!	!	!	!LO:TX:t=cresc.	!
[1FFF#X [1FF#X	1r	mf	8c#XL	.	(8EL	.
.	.	.	8B#XJ	.	8G)	.
.	.	.	2c#)	.	(8G	.
.	.	.	.	.	8B-XJ)	.
.	.	.	.	.	(8B-L	.
.	.	.	.	.	8G-XJ)	.
!	!	!	!LO:TX:t=cresc.	!	!	!
.	.	.	4f#X	.	[4G-	.
=67	=67	=67	=67	=67	=67	=67
1FFF#_ 1FF#_	1r	.	4e	.	8G-L]	.
.	.	.	.	.	8FJ	.
.	.	.	4d	.	[4G-X	.
.	.	.	8c#XL	.	8G-L]	.
.	.	.	8BnJ	.	8E-X	.
.	.	.	[4c#	.	8G-	.
.	.	.	.	.	8FJ	.
=68	=68	=68	=68	=68	=68	=68
1FFF#_ 1FF#_	1r	.	4c#]	.	8G-XL	.
.	.	.	.	.	8D-XJ	.
.	.	.	(4f#X	.	2E-X	.
.	.	.	4e	.	.	.
.	.	.	4d	.	(8c-XL	.
.	.	.	.	.	8B-XJ)	.
=69	=69	=69	=69	=69	=69	=69
1FFF#_ 1FF#_	1r	.	8c#XL	.	(8B-XL	.
.	.	.	8B#XJ	.	8A-X)	.
.	.	.	4c#)	.	(8A-	.
.	.	.	.	.	8cnJ)	.
.	.	.	(4f#X	.	(8cnL	.
.	.	.	.	.	8e-X)	.
.	.	.	4e	.	(8e-	.
.	.	.	.	.	8c-XJ)	.
=70	=70	=70	=70	=70	=70	=70
1FFF#_ 1FF#_	1r	.	4d	.	8c-XL	.
.	.	.	.	.	8B-XJ	.
.	.	.	8c#XL	.	[4c-	.
.	.	.	8B#XJ	.	.	.
.	.	.	4c#)	.	8c-L]	.
.	.	.	.	.	8A-XJ	.
.	.	.	(4f#X	.	[4c-	.
=71	=71	=71	=71	=71	=71	=71
1FFF#] 1FF#]	1r	.	4e	.	8c-L]	.
.	.	.	.	.	8G-X	.
.	.	.	4d	.	8c-X	.
.	.	.	.	.	8B-XJ	.
.	.	.	8c#XL	.	8c-L	.
.	.	.	8B#XJ	.	8A-XJ	.
.	.	.	4c#)	f	4B-	f
=	=	=	=	=	=	=
*-	*-	*-	*-	*-	*-	*-
!!!system-decoration: s1,s2{(s3,s4)}
!!!CDT: 1895/11/16-1963/12/28
!!!CBL: Hanau, Germany
!!!CDL: Frankfurt, Germany
!!!CNT: German
!!!AGN: Instrumental; Chamber
!!!MCN:
!!!MDT: 1929/03/15
!!!MGN:
!!!MLC: Wiesbaden, Germany
!!!MPD: 1929
!!!MPN: Dieckmann, Theodore; Hindemith, Paul; Lübbecke-Job, Emma
!!!ODT: 1928
!!!PDT: 1929
!!!excerpt-start-measure: 65
!!!excerpt-end-measure: 71
!!!excerpt-start-time: 1:05
!!!excerpt-end-time: 1:13
!!!EEV: 2020/01/22
!!!ONB: Converted from MusicXML on 2020/01/22
